X:341
T:AIR XL. Wat ye wha I met ystreen.
B:Joseph Mitchell: "The Highland Fair" (1731)
Z:Jack Campin <http://www.purr.demon.co.uk/jack/jack.html>
M:C|
L:1/8
K:EMin
EEFE  FAB2|ABdF  EDB,2|D>EFE DEF2|A,B,DE FEE2||
e>feE GBd2|d>efe dBAB |d>edD FAd2|B2AF   GEE2|]
